src/components/Careers/Benefits/images/equity.svg

<svg xmlns="http://www.w3.org/2000/svg" width="64" height="65" fill="none" viewBox="0 0 64 65"><mask id="path-1-inside-1" fill="#fff"><path fill-rule="evenodd" d="M28.0725 7.59521C12.5504 7.70068 0 20.3163 0 35.8632C0 51.4755 12.6563 64.1318 28.2686 64.1318C43.74 64.1318 56.3085 51.703 56.5342 36.2853H28.0725V7.59521Z" clip-rule="evenodd"/></mask><path fill="#FF8A00" fill-opacity=".4" fill-rule="evenodd" d="M28.0725 7.59521C12.5504 7.70068 0 20.3163 0 35.8632C0 51.4755 12.6563 64.1318 28.2686 64.1318C43.74 64.1318 56.3085 51.703 56.5342 36.2853H28.0725V7.59521Z" clip-rule="evenodd"/><path fill="#FF7A00" fill-opacity=".8" d="M28.0725 7.59521H30.604V5.04644L28.0553 5.06375L28.0725 7.59521ZM56.5342 36.2853L59.0654 36.3223L59.103 33.7537H56.5342V36.2853ZM28.0725 36.2853H25.541V38.8168H28.0725V36.2853ZM2.53152 35.8632C2.53152 21.7086 13.9581 10.2227 28.0897 10.1267L28.0553 5.06375C11.1428 5.17867 -2.53152 18.9239 -2.53152 35.8632H2.53152ZM28.2686 61.6003C14.0544 61.6003 2.53152 50.0774 2.53152 35.8632H-2.53152C-2.53152 52.8736 11.2582 66.6633 28.2686 66.6633V61.6003ZM54.0029 36.2482C53.7975 50.2845 42.3543 61.6003 28.2686 61.6003V66.6633C45.1258 66.6633 58.8196 53.1215 59.0654 36.3223L54.0029 36.2482ZM56.5342 33.7537H28.0725V38.8168H56.5342V33.7537ZM30.604 36.2853V7.59521H25.541V36.2853H30.604Z" mask="url(#path-1-inside-1)"/><path fill="#FF8A00" fill-opacity=".4" d="M35.4412 0C51.4692 0 64.1317 10.6202 64.1317 28.7971H35.4412V0Z"/><path stroke="#FF7A00" stroke-opacity=".8" stroke-width="2.451" d="M36.6666 1.247C43.9074 1.50344 50.3013 4.03677 54.9515 8.46921C59.6226 12.9217 62.6155 19.3673 62.8862 27.5717H36.6666V1.247Z"/></svg>

<svg fill="none" viewBox="0 0 64 65"><mask id="a" fill="#fff"><path fill-rule="evenodd" d="M28.073 7.595C12.55 7.701 0 20.316 0 35.863c0 15.612 12.656 28.269 28.269 28.269 15.471 0 28.04-12.429 28.265-27.847H28.073V7.595z" clip-rule="evenodd"/></mask><path fill="#FF8A00" fill-opacity=".4" fill-rule="evenodd" d="M28.073 7.595C12.55 7.701 0 20.316 0 35.863c0 15.612 12.656 28.269 28.269 28.269 15.471 0 28.04-12.429 28.265-27.847H28.073V7.595z" clip-rule="evenodd"/><path fill="#FF7A00" fill-opacity=".8" d="M28.073 7.595h2.531V5.046l-2.549.018.018 2.531zm28.461 28.69l2.531.037.038-2.568h-2.569v2.531zm-28.461 0H25.54v2.532h2.532v-2.532zm-25.541-.422c0-14.154 11.426-25.64 25.558-25.736l-.035-5.063c-16.912.115-30.587 13.86-30.587 30.8h5.064zM28.269 61.6c-14.215 0-25.737-11.523-25.737-25.737h-5.064c0 17.01 13.79 30.8 30.8 30.8V61.6zm25.734-25.352C53.797 50.285 42.354 61.6 28.269 61.6v5.063c16.857 0 30.55-13.541 30.796-30.34l-5.062-.075zm2.531-2.494H28.073v5.063h28.461v-5.063zm-25.93 2.531V7.595h-5.063v28.69h5.063z" mask="url(#a)"/><path fill="#FF8A00" fill-opacity=".4" d="M35.441 0c16.028 0 28.69 10.62 28.69 28.797h-28.69V0z"/><path stroke="#FF7A00" stroke-opacity=".8" stroke-width="2.451" d="M36.667 1.247c7.24.256 13.634 2.79 18.285 7.222 4.67 4.453 7.663 10.898 7.934 19.103h-26.22V1.247z"/></svg>
